X: 2113
T: Çıktım Belen Kahvesine
C: (Anonim)
O: Turkey
F: http://compmusic.upf.edu/node/140
N: huseyni--turku--sofyan--ciktim_belen--mugla
N: makam= huseyni
N: form= turku
N: usul= sofyan = 4/4
M: 4/4
L: 1/16
K: C _2/4B ^3/4f  
Q: 1/4=54
%%MIDI tuningsystem comma53
z2cc cBcB c1/4d3/4B/c/BB BBd2  | d/^c/d/e/dc _7/8BAB/A/G/A/ GG2G GGG2  | 
w:   |   | 
z2ee e3d d1/4e3/4c/d/cB c3/2B/c/BA/  | \
w:   | 
c2BA {c}BA2A A3A AAA2  | 
w:   | 
z2cd ee3 ze2e e/e3/2d/e/c  | ze2d d1/4e3/4c/d/cB/z/ c/d/c/d/B2 B2d2  | 
w:  Çık tım  Be len  kah ve si ne   |  bak tım_ o *  va *  *  *  ya   | 
d/^c/d/e/dc _7/8BAB/A/G G3G GGG2  | \
w:  bak *  *  *  tım  *  o va *  *  *  ya    | 
z2ee ee2d d1/4e3/4c/d/c/d/B cB/c/BA  | 
w:  Bay  Mus ta fa  *  ça *  ğır *  *  *  *  dı   | 
c/c3/2BA B/c/A3 A3A AAA2  | z2cd ee3 ze2e e/e3/2d/e/c  | 
w:  dam_ oy *  *  na *  ma ya    |  Or man cı  da  ge lir  gel mez   | 
ze2d d1/4e3/4c/d/cB/z/ c/d/c/d/B2 B2d2  | \
w:  yık tı  ma *  sa *  *  *  yı   | 
d/^c/d/e/dc _7/8BAB/A/G G3G GGG2  | 
w:  yık *  *  *  tı  *  ma sa *  *  *  yı    | 
z2ee ee2d d1/4e3/4c/d/c/d/B cB/c/BA  | \
w:  Söz  din le mez  *  Or *  man *  *  *  *  cı   | 
c/c3/2BA B/c/A3 A3A AAA2  | 
w:  çek miş  *  *  ka *  fa yı    | 
z2cc cBcB c1/4d3/4B/c/BB B2d2  | d/^c/d/e/dc _7/8BAB/A/G G3G GGG2  | 
w:  A man_ Or *  man *  cı   |  ca *  *  *  nım  *  Or *  man *  *  cı    | 
z2ee ee2d d1/4e3/4c/d/c/d/B cB/c/BA  | \
w:  Kö yü mü ze  *  bı *  rak *  *  *  *  tın   | 
c/c3/2BA B/c/A3 A3A AAA2  | 
w:  yok tan  *  *  bir_ *  a cı    | 
z2cc cBcB c1/4d3/4B/c/BB B2d2  | d/^c/d/e/dc _7/8BAB/A/G G3G GGG2  | 
w:  A man_ Or *  man *  cı   |  ca *  *  *  nım  *  Or *  man *  *  cı    | 
z2ee ee2d d1/4e3/4c/d/c/d/B cB/c/BA  | \
w:  Kö yü mü ze  *  bı *  rak *  *  *  *  tın   | 
c/c3/2BA B/c/A3 A3A AAA2  | 
w:  yok tan  *  *  bir_ *  a cı    | 
z2cc cBcB c1/4d3/4B/c/BB BBd2  | d/^c/d/e/dc _7/8BAB/A/G/A/ GG2G GGG2  | 
w:   |   | 
z2ee e3d d1/4e3/4c/d/cB c3/2B/c/BA/  | \
w:   | 
c2BA {c}BA2A A3A AAA2  | 
w:   | 
z2cd ee3 ze2e e/e3/2d/e/c  | ze2d d1/4e3/4c/d/cB/z/ c/d/c/d/B2 B2d2  | 
w:  Çık tım  Be len  kah ve si ne   |  bak tım_ o *  va *  *  *  ya   | 
d/^c/d/e/dc _7/8BAB/A/G G3G GGG2  | \
w:  bak *  *  *  tım  *  o va *  *  *  ya    | 
z2ee ee2d d1/4e3/4c/d/c/d/B cB/c/BA  | 
w:  Bay  Mus ta fa  *  ça *  ğır *  *  *  *  dı   | 
c/c3/2BA B/c/A3 A3A AAA2  | z2cd ee3 ze2e e/e3/2d/e/c  | 
w:  dam_ oy *  *  na *  ma ya    |  Or man cı  da  ge lir  gel mez   | 
ze2d d1/4e3/4c/d/cB/z/ c/d/c/d/B2 B2d2  | \
w:  yık tı  ma *  sa *  *  *  yı   | 
d/^c/d/e/dc _7/8BAB/A/G G3G GGG2  | 
w:  yık *  *  *  tı  *  ma sa *  *  *  yı    | 
z2ee ee2d d1/4e3/4c/d/c/d/B cB/c/BA  | \
w:  Söz  din le mez  *  Or *  man *  *  *  *  cı   | 
c/c3/2BA B/c/A3 A3A AAA2  | 
w:  çek miş  *  *  ka *  fa yı    | 
z2cc cBcB c1/4d3/4B/c/BB B2d2  | d/^c/d/e/dc _7/8BAB/A/G G3G GGG2  | 
w:  A man_ Or *  man *  cı   |  ca *  *  *  nım  *  Or *  man *  *  cı    | 
z2ee ee2d d1/4e3/4c/d/c/d/B cB/c/BA  | \
w:  Kö yü mü ze  *  bı *  rak *  *  *  *  tın   | 
c/c3/2BA B/c/A3 A3A AAA2  | 
w:  yok tan  *  *  bir_ *  a cı    | 
z2cc cBcB c1/4d3/4B/c/BB B2d2  | d/^c/d/e/dc _7/8BAB/A/G G3G GGG2  | 
w:  A man_ Or *  man *  cı   |  ca *  *  *  nım  *  Or *  man *  *  cı    | 
z2ee ee2d d1/4e3/4c/d/c/d/B cB/c/BA  | \
w:  Kö yü mü ze  *  bı *  rak *  *  *  *  tın   | 
c/c3/2BA B/c/A3 A3A AAA2  | 
w:  yok tan  *  *  bir_ *  a cı    | 
|


